storage/app/icons/phosphoricons/duotone/faders-horizontal-duotone.svg

<svg xmlns="http://www.w3.org/2000/svg" fill="currentColor" viewBox="0 0 256 256"><path d="M216 80v96H40V80Z" opacity=".2"/><path d="M176 80a8 8 0 0 1 8-8h32a8 8 0 0 1 0 16h-32a8 8 0 0 1-8-8M40 88h104v16a8 8 0 0 0 16 0V56a8 8 0 0 0-16 0v16H40a8 8 0 0 0 0 16m176 80h-96a8 8 0 0 0 0 16h96a8 8 0 0 0 0-16M88 144a8 8 0 0 0-8 8v16H40a8 8 0 0 0 0 16h40v16a8 8 0 0 0 16 0v-48a8 8 0 0 0-8-8"/></svg>

<svg xmlns="http://www.w3.org/2000/svg" viewBox="0 0 256 256" fill="currentColor"><path d="M216,80v96H40V80Z" opacity="0.2"/><path d="M176,80a8,8,0,0,1,8-8h32a8,8,0,0,1,0,16H184A8,8,0,0,1,176,80ZM40,88H144v16a8,8,0,0,0,16,0V56a8,8,0,0,0-16,0V72H40a8,8,0,0,0,0,16Zm176,80H120a8,8,0,0,0,0,16h96a8,8,0,0,0,0-16ZM88,144a8,8,0,0,0-8,8v16H40a8,8,0,0,0,0,16H80v16a8,8,0,0,0,16,0V152A8,8,0,0,0,88,144Z"/></svg>
